content/blogs/regnskap/hva-er-personalkostnad/fremtidens-personalkostnad-trender.svg

<svg xmlns="http://www.w3.org/2000/svg" viewBox="0 0 800 600"><defs><linearGradient id="b" x1="0%" x2="100%" y1="0%" y2="100%"><stop offset="0%" style="stop-color:#667eea;stop-opacity:1"/><stop offset="100%" style="stop-color:#764ba2;stop-opacity:1"/></linearGradient><linearGradient id="c" x1="0%" x2="100%" y1="0%" y2="100%"><stop offset="0%" style="stop-color:#f093fb;stop-opacity:1"/><stop offset="100%" style="stop-color:#f5576c;stop-opacity:1"/></linearGradient><linearGradient id="d" x1="0%" x2="100%" y1="0%" y2="100%"><stop offset="0%" style="stop-color:#4facfe;stop-opacity:1"/><stop offset="100%" style="stop-color:#00f2fe;stop-opacity:1"/></linearGradient></defs><path fill="#f8fafc" d="M0 0h800v600H0z"/><text x="400" y="30" fill="#1e293b" font-family="Arial, sans-serif" font-size="24" font-weight="bold" text-anchor="middle">
    Fremtidens Personalkostnad Trender
  </text><path stroke="#64748b" stroke-width="3" marker-end="url(#a)" d="M50 550h700"/><text x="400" y="570" fill="#64748b" font-family="Arial, sans-serif" font-size="14" text-anchor="middle">Tid</text><defs><marker id="a" markerHeight="7" markerWidth="10" orient="auto" refX="9" refY="3.5"><path fill="#64748b" d="m0 0 10 3.5L0 7z"/></marker></defs><rect width="200" height="120" x="50" y="80" fill="url(#b)" opacity=".9" rx="10"/><text x="150" y="110" fill="#fff" font-family="Arial, sans-serif" font-size="16" font-weight="bold" text-anchor="middle">
      Teknologisk Utvikling
    </text><circle cx="100" cy="135" r="15" fill="#fff" opacity=".8"/><text x="100" y="140" fill="#667eea" font-family="Arial, sans-serif" font-size="12" font-weight="bold" text-anchor="middle">AI</text><rect width="20" height="20" x="130" y="125" fill="#fff" opacity=".8" rx="3"/><text x="140" y="137" fill="#667eea" font-family="Arial, sans-serif" font-size="8" text-anchor="middle">HR</text><path fill="none" stroke="#fff" stroke-width="2" d="m170 145 10-20 10 15 10-20z" opacity=".8"/><text x="80" y="165" fill="#fff" font-family="Arial, sans-serif" font-size="12">• Kunstig intelligens</text><text x="80" y="180" fill="#fff" font-family="Arial, sans-serif" font-size="12">• Digital HR</text><text x="80" y="195" fill="#fff" font-family="Arial, sans-serif" font-size="12">• Dataanalyse</text><rect width="200" height="120" x="300" y="80" fill="url(#c)" opacity=".9" rx="10"/><text x="400" y="110" fill="#fff" font-family="Arial, sans-serif" font-size="16" font-weight="bold" text-anchor="middle">
      Arbeidsliv i Endring
    </text><rect width="25" height="15" x="330" y="125" fill="#fff" opacity=".8" rx="3"/><rect width="25" height="15" x="340" y="120" fill="#fff" opacity=".6" rx="3"/><circle cx="400" cy="135" r="12" fill="#fff" opacity=".8"/><text x="400" y="140" fill="#f5576c" font-family="Arial, sans-serif" font-size="10" text-anchor="middle">⚡</text><circle cx="450" cy="130" r="8" fill="#fff" opacity=".8"/><circle cx="460" cy="140" r="8" fill="#fff" opacity=".6"/><text x="330" y="165" fill="#fff" font-family="Arial, sans-serif" font-size="12">• Fleksibelt arbeid</text><text x="330" y="180" fill="#fff" font-family="Arial, sans-serif" font-size="12">• Kompetanseskiftet</text><text x="330" y="195" fill="#fff" font-family="Arial, sans-serif" font-size="12">• Generasjonsskiftet</text><rect width="200" height="120" x="550" y="80" fill="url(#d)" opacity=".9" rx="10"/><text x="650" y="110" fill="#fff" font-family="Arial, sans-serif" font-size="16" font-weight="bold" text-anchor="middle">
      Regulatoriske Endringer
    </text><rect width="20" height="15" x="580" y="125" fill="#fff" opacity=".8" rx="2"/><text x="590" y="137" fill="#4facfe" font-family="Arial, sans-serif" font-size="10" text-anchor="middle">EU</text><rect width="15" height="20" x="620" y="125" fill="#fff" opacity=".8" rx="2"/><text x="627" y="137" fill="#4facfe" font-family="Arial, sans-serif" font-size="10" text-anchor="middle">$</text><circle cx="670" cy="135" r="12" fill="#fff" opacity=".8"/><text x="670" y="140" fill="#4facfe" font-family="Arial, sans-serif" font-size="10" text-anchor="middle">🌱</text><text x="580" y="165" fill="#fff" font-family="Arial, sans-serif" font-size="12">• EU-direktiver</text><text x="580" y="180" fill="#fff" font-family="Arial, sans-serif" font-size="12">• Skatteendringer</text><text x="580" y="195" fill="#fff" font-family="Arial, sans-serif" font-size="12">• Miljøhensyn</text><path fill="none" stroke="#667eea" stroke-width="2" marker-end="url(#a)" d="M150 210q50 40 100 70"/><text x="180" y="250" fill="#667eea" font-family="Arial, sans-serif" font-size="12">Automatisering</text><text x="180" y="265" fill="#667eea" font-family="Arial, sans-serif" font-size="12">reduserer kostnader</text><path fill="none" stroke="#f5576c" stroke-width="2" marker-end="url(#a)" d="M400 210v70"/><text x="320" y="250" fill="#f5576c" font-family="Arial, sans-serif" font-size="12">Nye kostnadsstrukturer</text><text x="320" y="265" fill="#f5576c" font-family="Arial, sans-serif" font-size="12">og arbeidsmodeller</text><path fill="none" stroke="#4facfe" stroke-width="2" marker-end="url(#a)" d="M650 210q-50 40-100 70"/><text x="520" y="250" fill="#4facfe" font-family="Arial, sans-serif" font-size="12">Økte compliance-</text><text x="520" y="265" fill="#4facfe" font-family="Arial, sans-serif" font-size="12">kostnader</text><rect width="400" height="120" x="200" y="300" fill="#1e293b" opacity=".9" rx="10"/><text x="400" y="330" fill="#fff" font-family="Arial, sans-serif" font-size="18" font-weight="bold" text-anchor="middle">
    Påvirkning på Personalkostnader
  </text><circle cx="230" cy="360" r="4" fill="#10b981"/><text x="250" y="365" fill="#fff" font-family="Arial, sans-serif" font-size="14">Økt automatisering reduserer rutinekostnader</text><circle cx="230" cy="385" r="4" fill="#f59e0b"/><text x="250" y="390" fill="#fff" font-family="Arial, sans-serif" font-size="14">Hybride arbeidsmodeller endrer kostnadsstruktur</text><circle cx="230" cy="410" r="4" fill="#ef4444"/><text x="250" y="415" fill="#fff" font-family="Arial, sans-serif" font-size="14">Nye reguleringer øker compliance-kostnader</text><path stroke="#64748b" stroke-width="2" d="M150 530v20"/><text x="150" y="525" fill="#64748b" font-family="Arial, sans-serif" font-size="12" text-anchor="middle">2025</text><path stroke="#64748b" stroke-width="2" d="M400 530v20"/><text x="400" y="525" fill="#64748b" font-family="Arial, sans-serif" font-size="12" text-anchor="middle">2030</text><path stroke="#64748b" stroke-width="2" d="M650 530v20"/><text x="650" y="525" fill="#64748b" font-family="Arial, sans-serif" font-size="12" text-anchor="middle">2035+</text><path fill="none" stroke="#667eea" stroke-width="3" d="M100 500q200-20 400-50l200-20" opacity=".7"/><text x="500" y="445" fill="#667eea" font-family="Arial, sans-serif" font-size="12">Teknologiutvikling</text><path fill="none" stroke="#f5576c" stroke-width="3" d="M100 490q150-20 300-30l300-20" opacity=".7"/><text x="300" y="465" fill="#f5576c" font-family="Arial, sans-serif" font-size="12">Arbeidslivsendring</text><path fill="none" stroke="#4facfe" stroke-width="3" d="M100 480q100-20 200-30 200-10 400 0" opacity=".7"/><text x="400" y="445" fill="#4facfe" font-family="Arial, sans-serif" font-size="12">Regulatorisk endring</text></svg>

<svg viewBox="0 0 800 600" xmlns="http://www.w3.org/2000/svg">
  <defs>
    <linearGradient id="techGradient" x1="0%" y1="0%" x2="100%" y2="100%">
      <stop offset="0%" style="stop-color:#667eea;stop-opacity:1" />
      <stop offset="100%" style="stop-color:#764ba2;stop-opacity:1" />
    </linearGradient>
    <linearGradient id="workGradient" x1="0%" y1="0%" x2="100%" y2="100%">
      <stop offset="0%" style="stop-color:#f093fb;stop-opacity:1" />
      <stop offset="100%" style="stop-color:#f5576c;stop-opacity:1" />
    </linearGradient>
    <linearGradient id="regGradient" x1="0%" y1="0%" x2="100%" y2="100%">
      <stop offset="0%" style="stop-color:#4facfe;stop-opacity:1" />
      <stop offset="100%" style="stop-color:#00f2fe;stop-opacity:1" />
    </linearGradient>
  </defs>
  

  <rect width="800" height="600" fill="#f8fafc"/>
  

  <text x="400" y="30" text-anchor="middle" font-family="Arial, sans-serif" font-size="24" font-weight="bold" fill="#1e293b">
    Fremtidens Personalkostnad Trender
  </text>
  

  <line x1="50" y1="550" x2="750" y2="550" stroke="#64748b" stroke-width="3" marker-end="url(#arrowhead)"/>
  <text x="400" y="570" text-anchor="middle" font-family="Arial, sans-serif" font-size="14" fill="#64748b">Tid</text>
  

  <defs>
    <marker id="arrowhead" markerWidth="10" markerHeight="7" refX="9" refY="3.5" orient="auto">
      <polygon points="0 0, 10 3.5, 0 7" fill="#64748b"/>
    </marker>
  </defs>
  

  <g>
    <rect x="50" y="80" width="200" height="120" rx="10" fill="url(#techGradient)" opacity="0.9"/>
    <text x="150" y="110" text-anchor="middle" font-family="Arial, sans-serif" font-size="16" font-weight="bold" fill="white">
      Teknologisk Utvikling
    </text>
    

    <circle cx="100" cy="135" r="15" fill="white" opacity="0.8"/>
    <text x="100" y="140" text-anchor="middle" font-family="Arial, sans-serif" font-size="12" font-weight="bold" fill="#667eea">AI</text>
    

    <rect x="130" y="125" width="20" height="20" rx="3" fill="white" opacity="0.8"/>
    <text x="140" y="137" text-anchor="middle" font-family="Arial, sans-serif" font-size="8" fill="#667eea">HR</text>
    

    <polygon points="170,145 180,125 190,140 200,120" fill="none" stroke="white" stroke-width="2" opacity="0.8"/>
    
    <text x="80" y="165" font-family="Arial, sans-serif" font-size="12" fill="white">• Kunstig intelligens</text>
    <text x="80" y="180" font-family="Arial, sans-serif" font-size="12" fill="white">• Digital HR</text>
    <text x="80" y="195" font-family="Arial, sans-serif" font-size="12" fill="white">• Dataanalyse</text>
  </g>
  

  <g>
    <rect x="300" y="80" width="200" height="120" rx="10" fill="url(#workGradient)" opacity="0.9"/>
    <text x="400" y="110" text-anchor="middle" font-family="Arial, sans-serif" font-size="16" font-weight="bold" fill="white">
      Arbeidsliv i Endring
    </text>
    

    <rect x="330" y="125" width="25" height="15" rx="3" fill="white" opacity="0.8"/>
    <rect x="340" y="120" width="25" height="15" rx="3" fill="white" opacity="0.6"/>
    

    <circle cx="400" cy="135" r="12" fill="white" opacity="0.8"/>
    <text x="400" y="140" text-anchor="middle" font-family="Arial, sans-serif" font-size="10" fill="#f5576c">⚡</text>
    

    <circle cx="450" cy="130" r="8" fill="white" opacity="0.8"/>
    <circle cx="460" cy="140" r="8" fill="white" opacity="0.6"/>
    
    <text x="330" y="165" font-family="Arial, sans-serif" font-size="12" fill="white">• Fleksibelt arbeid</text>
    <text x="330" y="180" font-family="Arial, sans-serif" font-size="12" fill="white">• Kompetanseskiftet</text>
    <text x="330" y="195" font-family="Arial, sans-serif" font-size="12" fill="white">• Generasjonsskiftet</text>
  </g>
  

  <g>
    <rect x="550" y="80" width="200" height="120" rx="10" fill="url(#regGradient)" opacity="0.9"/>
    <text x="650" y="110" text-anchor="middle" font-family="Arial, sans-serif" font-size="16" font-weight="bold" fill="white">
      Regulatoriske Endringer
    </text>
    

    <rect x="580" y="125" width="20" height="15" rx="2" fill="white" opacity="0.8"/>
    <text x="590" y="137" text-anchor="middle" font-family="Arial, sans-serif" font-size="10" fill="#4facfe">EU</text>
    

    <rect x="620" y="125" width="15" height="20" rx="2" fill="white" opacity="0.8"/>
    <text x="627" y="137" text-anchor="middle" font-family="Arial, sans-serif" font-size="10" fill="#4facfe">$</text>
    

    <circle cx="670" cy="135" r="12" fill="white" opacity="0.8"/>
    <text x="670" y="140" text-anchor="middle" font-family="Arial, sans-serif" font-size="10" fill="#4facfe">🌱</text>
    
    <text x="580" y="165" font-family="Arial, sans-serif" font-size="12" fill="white">• EU-direktiver</text>
    <text x="580" y="180" font-family="Arial, sans-serif" font-size="12" fill="white">• Skatteendringer</text>
    <text x="580" y="195" font-family="Arial, sans-serif" font-size="12" fill="white">• Miljøhensyn</text>
  </g>
  

  <g>

    <path d="M 150 210 Q 200 250 250 280" fill="none" stroke="#667eea" stroke-width="2" marker-end="url(#arrowhead)"/>
    <text x="180" y="250" font-family="Arial, sans-serif" font-size="12" fill="#667eea">Automatisering</text>
    <text x="180" y="265" font-family="Arial, sans-serif" font-size="12" fill="#667eea">reduserer kostnader</text>
    

    <path d="M 400 210 Q 400 250 400 280" fill="none" stroke="#f5576c" stroke-width="2" marker-end="url(#arrowhead)"/>
    <text x="320" y="250" font-family="Arial, sans-serif" font-size="12" fill="#f5576c">Nye kostnadsstrukturer</text>
    <text x="320" y="265" font-family="Arial, sans-serif" font-size="12" fill="#f5576c">og arbeidsmodeller</text>
    

    <path d="M 650 210 Q 600 250 550 280" fill="none" stroke="#4facfe" stroke-width="2" marker-end="url(#arrowhead)"/>
    <text x="520" y="250" font-family="Arial, sans-serif" font-size="12" fill="#4facfe">Økte compliance-</text>
    <text x="520" y="265" font-family="Arial, sans-serif" font-size="12" fill="#4facfe">kostnader</text>
  </g>
  

  <rect x="200" y="300" width="400" height="120" rx="10" fill="#1e293b" opacity="0.9"/>
  <text x="400" y="330" text-anchor="middle" font-family="Arial, sans-serif" font-size="18" font-weight="bold" fill="white">
    Påvirkning på Personalkostnader
  </text>
  

  <g>
    <circle cx="230" cy="360" r="4" fill="#10b981"/>
    <text x="250" y="365" font-family="Arial, sans-serif" font-size="14" fill="white">Økt automatisering reduserer rutinekostnader</text>
    
    <circle cx="230" cy="385" r="4" fill="#f59e0b"/>
    <text x="250" y="390" font-family="Arial, sans-serif" font-size="14" fill="white">Hybride arbeidsmodeller endrer kostnadsstruktur</text>
    
    <circle cx="230" cy="410" r="4" fill="#ef4444"/>
    <text x="250" y="415" font-family="Arial, sans-serif" font-size="14" fill="white">Nye reguleringer øker compliance-kostnader</text>
  </g>
  

  <g>
    <line x1="150" y1="530" x2="150" y2="550" stroke="#64748b" stroke-width="2"/>
    <text x="150" y="525" text-anchor="middle" font-family="Arial, sans-serif" font-size="12" fill="#64748b">2025</text>
    
    <line x1="400" y1="530" x2="400" y2="550" stroke="#64748b" stroke-width="2"/>
    <text x="400" y="525" text-anchor="middle" font-family="Arial, sans-serif" font-size="12" fill="#64748b">2030</text>
    
    <line x1="650" y1="530" x2="650" y2="550" stroke="#64748b" stroke-width="2"/>
    <text x="650" y="525" text-anchor="middle" font-family="Arial, sans-serif" font-size="12" fill="#64748b">2035+</text>
  </g>
  

  <g>

    <path d="M 100 500 Q 300 480 500 450 Q 600 440 700 430" fill="none" stroke="#667eea" stroke-width="3" opacity="0.7"/>
    <text x="500" y="445" font-family="Arial, sans-serif" font-size="12" fill="#667eea">Teknologiutvikling</text>
    

    <path d="M 100 490 Q 250 470 400 460 Q 550 450 700 440" fill="none" stroke="#f5576c" stroke-width="3" opacity="0.7"/>
    <text x="300" y="465" font-family="Arial, sans-serif" font-size="12" fill="#f5576c">Arbeidslivsendring</text>
    

    <path d="M 100 480 Q 200 460 300 450 Q 500 440 700 450" fill="none" stroke="#4facfe" stroke-width="3" opacity="0.7"/>
    <text x="400" y="445" font-family="Arial, sans-serif" font-size="12" fill="#4facfe">Regulatorisk endring</text>
  </g>
</svg>
